packages/core/src/svgs/tokens/branded/MINTME.svg

<svg width="24" height="24" viewBox="0 0 24 24" fill="none" xmlns="http://www.w3.org/2000/svg">
<path d="M2 7.1351H3.62162V8.75671H2V7.1351ZM7.4054 4.95672H9.02701V6.52429H7.4054V4.95672ZM3.62162 9.83778H5.24324V11.4594H3.62162V9.83778ZM5.78377 7.1351H7.4054V8.75671H5.78377V7.1351ZM2 14.7027H3.62162V16.3243H2V14.7027ZM5.78377 17.4053H7.4054V19.0269H5.78377V17.4053ZM4.7027 13.081H6.32431V14.7027H4.7027V13.081ZM14.4324 4.4324C13.4594 4.4324 12.6378 4.61618 11.7297 4.99456V6.51889H10.1081V5.81618C9.63783 6.15132 9.16755 6.61618 8.77837 7.04321H9.02701V8.21618H7.72972C7.40103 8.90368 7.16127 9.6303 7.01621 10.3784H7.94594V12H6.86485C6.86485 12.5134 6.91891 13.1135 7.01621 13.6216H8.48647V14.6919L7.4054 14.7027C7.63782 15.2324 8.15133 15.8648 8.49728 16.3243V14.7027H10.1081V16.3243H8.49728C8.72972 16.6324 9.29729 17.4053 9.56755 17.4053H11.1891V18.8323C12.227 19.3242 13.3189 19.5621 14.3946 19.5675C18.654 19.5891 22.0054 15.9999 22 12C21.9946 7.98915 18.6324 4.4324 14.4324 4.4324ZM7.94594 10.3675V8.7405H9.56755V10.3675H7.94594Z" fill="#D1B000"/>
<path fill-rule="evenodd" clip-rule="evenodd" d="M20.8749 12.2107C20.8479 12.3189 20.8209 12.427 20.7776 12.5351H17.8696C17.8371 12.7676 17.8857 12.9405 18.0155 13.0594C18.1453 13.1838 18.329 13.2486 18.5289 13.2432C18.8316 13.2486 19.1182 13.1135 19.2641 12.8918H20.6317C20.5128 13.1297 20.3344 13.3513 20.1181 13.5405C19.7346 13.8565 19.2708 14.0602 18.7785 14.129C18.2863 14.1976 17.7845 14.1287 17.329 13.9297C17.0525 13.7849 16.8333 13.5504 16.7074 13.2649C16.584 12.9478 16.5614 12.6006 16.6425 12.2702C16.7161 11.9047 16.8777 11.5627 17.1132 11.2735C17.3485 10.9844 17.6508 10.757 17.9939 10.6108C18.3506 10.454 18.7507 10.3784 19.1452 10.3784C19.5021 10.3679 19.8564 10.4439 20.1777 10.6C20.4641 10.7513 20.6803 10.9729 20.7885 11.2378C20.9236 11.5459 20.9506 11.8864 20.8749 12.2107ZM18.5939 11.4378C18.7614 11.3297 18.9723 11.2756 19.1722 11.2756C19.3722 11.2648 19.5668 11.3297 19.6966 11.4432C19.8317 11.5675 19.8804 11.8378 19.8317 12H18.2208C18.2912 11.8216 18.4154 11.5568 18.5993 11.4378H18.5939Z" fill="#181B1E"/>
<path d="M14.9138 11.2432L14.3408 14.1621H15.6436L16.5949 9.29721H15.0543L12.9138 12.6647L12.0544 9.29721H10.5192L9.56787 14.1512H10.8652L11.4382 11.2269L12.0814 14.1512H13.1409L14.9138 11.2432Z" fill="#181B1E"/>
</svg>

<svg xmlns="http://www.w3.org/2000/svg" width="24" height="24" fill="none" viewBox="0 0 24 24">
    <path fill="#D1B000" d="M2 7.135h1.622v1.622H2zm5.405-2.178h1.622v1.567H7.405zm-3.783 4.88h1.621v1.622H3.622zm2.162-2.702h1.621v1.622H5.784zM2 14.703h1.622v1.621H2zm3.784 2.702h1.621v1.622H5.784zm-1.081-4.324h1.621v1.622H4.703zm9.73-8.649c-.974 0-1.795.184-2.703.563v1.524h-1.622v-.703c-.47.335-.94.8-1.33 1.227h.249v1.173H7.73a9 9 0 0 0-.714 2.162h.93V12H6.865c0 .513.054 1.114.151 1.622h1.47v1.07l-1.08.01c.232.53.745 1.163 1.091 1.622v-1.621h1.611v1.621h-1.61c.232.308.8 1.081 1.07 1.081h1.621v1.427c1.038.492 2.13.73 3.206.735C18.654 19.59 22.005 16 22 12c-.005-4.01-3.368-7.568-7.568-7.568m-6.487 5.935V8.742h1.622v1.627z"/>
    <path fill="#181B1E" fill-rule="evenodd" d="M20.875 12.21a3 3 0 0 1-.097.325H17.87q-.049.348.145.524c.13.125.314.19.514.184.303.006.59-.13.735-.351h1.368a2.2 2.2 0 0 1-.514.649 2.69 2.69 0 0 1-2.789.389 1.38 1.38 0 0 1-.622-.665 1.66 1.66 0 0 1-.065-.995 2.3 2.3 0 0 1 1.352-1.66 2.9 2.9 0 0 1 1.151-.232c.357-.01.711.066 1.033.222.286.151.502.373.61.638.136.308.163.648.087.973m-2.281-.772c.167-.108.378-.162.578-.162a.75.75 0 0 1 .525.167c.135.125.183.395.135.557H18.22c.07-.178.194-.443.378-.562z" clip-rule="evenodd"/>
    <path fill="#181B1E" d="m14.914 11.243-.573 2.92h1.303l.95-4.866h-1.54l-2.14 3.368-.86-3.368H10.52l-.951 4.854h1.297l.573-2.924.643 2.924h1.06z"/>
</svg>
